X:310
T: Dangzongyang ba lantian cajingle
N: C1807
O: China, Gansu Linxia
S: I, 111]
N: Han Hui
R: Shange, Huar, Nanxiangling]
M: 2/4
L: 1/16
K: Eb
gg | g2g2g2fg | efecc4 | B3cefg2 | f8- | f4
gfgb | b6c2 | e4c4 | g4g2b2 | b8 | b4
z2ee | e2e2c2Bc | g4g2b2 | g2g2g4 | f2e2c2z2
c2e2efg2 | f2e2c4 | c2B2B4 | B8 | G4z2

